X: 109103
T: I'LL HAP YE IN MY PLAIDIE
Q:"Strathspey."
R: Strathspey.
%R:strathspey
Z: 2017 by John Chambers <jc:trillian.mit.edu>
B: Kerr's Merrie Melodies v.1 p.9 s.1 #3
M: C
L: 1/8
K: G	% and Em
ug |\
d>BA>G E>DE>G | d>ed>B d3 ug |\
d>B A>G E>DE>G | e>fe>^d e2 e :|\
ug |\
d>eg>a (g/a/b) a>g | g>ed>B d3 g |
d>eg>a (g/a/b) a>g | e<b a>g e3 ug |\
d>eg>a (g/a/b) a>g | d>ed>B d3 ug |\
d>BA>G E>DE>G | e>fe>^d e2-e |]

%%sep 1 1 500
%%sep 1 1 500

